build/img/teamwork.svg

<svg width="80" height="80" viewBox="0 0 80 80" fill="none" xmlns="http://www.w3.org/2000/svg">
<path d="M26.25 25V27.5C26.25 30.5175 28.4012 33.0425 31.25 33.6238V40C31.25 42.3775 32.2063 44.5338 33.75 46.1112V46.25C33.7925 46.25 33.8325 46.2388 33.8738 46.2375C35.4538 47.7888 37.6163 48.75 40 48.75C44.825 48.75 48.75 44.8237 48.75 40V38.75V30C48.75 26.5538 45.9463 23.75 42.5 23.75H27.5C26.81 23.75 26.25 24.3088 26.25 25ZM40 46.25C38.8562 46.25 37.7975 45.9188 36.875 45.38C38.7338 44.2963 40 42.3025 40 40H37.5C37.5 41.6737 36.3913 43.0775 34.8738 43.5588C34.17 42.5475 33.75 41.3237 33.75 40V33.75H41.25C41.25 36.7675 43.4013 39.2925 46.25 39.8738V40C46.25 43.4463 43.4463 46.25 40 46.25ZM28.75 26.25H42.5C44.5675 26.25 46.25 27.9325 46.25 30V37.2863C44.795 36.77 43.75 35.38 43.75 33.75V32.5C43.75 31.8088 43.19 31.25 42.5 31.25H32.5C30.4325 31.25 28.75 29.5675 28.75 27.5V26.25Z" fill="white"/>
<path d="M76.6375 68.75C78.6625 67.405 80 65.1075 80 62.5C80 58.3638 76.6363 55 72.5 55C69.8925 55 67.595 56.3387 66.25 58.3625C64.905 56.3375 62.6075 55 60 55C59.01 55 58.0588 55.2113 57.1663 55.5775C56.35 53.075 54.0213 51.25 51.25 51.25H30.3787L23.47 46.6437L18.2725 36.25H20V33.75H16.25H15V23.65C16.8775 23.38 18.5662 22.5175 19.8612 21.25H21.25C24.6963 21.25 27.5 18.4462 27.5 15V12.5C27.5 11.8088 26.94 11.25 26.25 11.25H22.5V10C22.5 9.30875 21.94 8.75 21.25 8.75H6.25C5.56 8.75 5 9.30875 5 10V11.25H1.25C0.56 11.25 0 11.8088 0 12.5V15C0 18.4462 2.80375 21.25 6.25 21.25H7.63875C8.935 22.5175 10.6225 23.38 12.5 23.65V33.75H10H7.5V36.25H9.17625L16.3512 52.9925C16.44 53.2 16.5825 53.38 16.765 53.5112L18.93 55.0863C16.7712 55.3963 14.9062 56.6225 13.75 58.3638C12.405 56.3388 10.1075 55 7.5 55C3.36375 55 0 58.3638 0 62.5C0 65.1075 1.33875 67.405 3.3625 68.75C1.33875 70.095 0 72.3925 0 75V80H2.5V75C2.5 72.2425 4.7425 70 7.5 70C10.2575 70 12.5 72.2425 12.5 75V80H15V75C15 72.2425 17.2425 70 20 70C22.7575 70 25 72.2425 25 75V80H27.5V75C27.5 72.3925 26.1612 70.095 24.1375 68.75C26.1625 67.405 27.5 65.1075 27.5 62.5C27.5 62.0675 27.455 61.6462 27.385 61.2337L30 63.1362V78.75C30 79.4413 30.56 80 31.25 80H56.25C56.94 80 57.5 79.4413 57.5 78.75V70.6838C58.2575 70.2425 59.1075 70 60 70C62.7575 70 65 72.2425 65 75V80H67.5V75C67.5 72.2425 69.7425 70 72.5 70C75.2575 70 77.5 72.2425 77.5 75V80H80V75C80 72.3925 78.6613 70.095 76.6375 68.75ZM25 13.75V15C25 16.9263 23.535 18.4987 21.6637 18.7087C22.195 17.58 22.5 16.3263 22.5 15V13.75H25ZM2.5 15V13.75H5V15C5 16.3263 5.305 17.58 5.83625 18.7087C3.965 18.4987 2.5 16.9263 2.5 15ZM7.5 15V11.25H20V15C20 18.4462 17.1963 21.25 13.75 21.25C10.3038 21.25 7.5 18.4462 7.5 15ZM2.5 62.5C2.5 59.7425 4.7425 57.5 7.5 57.5C10.2575 57.5 12.5 59.7425 12.5 62.5C12.5 65.2575 10.2575 67.5 7.5 67.5C4.7425 67.5 2.5 65.2575 2.5 62.5ZM13.75 70.8625C13.1938 70.025 12.475 69.3063 11.6375 68.75C12.475 68.1937 13.1938 67.475 13.75 66.6375C14.3062 67.475 15.025 68.1937 15.8625 68.75C15.025 69.3063 14.3062 70.025 13.75 70.8625ZM20 67.5C17.2425 67.5 15 65.2575 15 62.5C15 59.7425 17.2425 57.5 20 57.5C22.7575 57.5 25 59.7425 25 62.5C25 65.2575 22.7575 67.5 20 67.5ZM72.5 57.5C75.2575 57.5 77.5 59.7425 77.5 62.5C77.5 65.2575 75.2575 67.5 72.5 67.5C69.7425 67.5 67.5 65.2575 67.5 62.5C67.5 59.7425 69.7425 57.5 72.5 57.5ZM65 62.5C65 65.2575 62.7575 67.5 60 67.5C59.1075 67.5 58.2575 67.2575 57.5 66.8175V58.1825C58.2575 57.7425 59.1075 57.5 60 57.5C62.7575 57.5 65 59.7425 65 62.5ZM38.75 59.155L36.785 53.75H38.75V59.155ZM41.25 53.75H43.215L41.25 59.155V53.75ZM55 77.5H50V60H47.5V77.5H32.5V62.5C32.5 62.1 32.3088 61.725 31.985 61.4888L18.5125 51.6912L11.8962 36.25H15.4775L21.3825 48.0587C21.48 48.2525 21.6262 48.4188 21.8075 48.54L29.3075 53.54C29.5112 53.6763 29.7537 53.75 30 53.75H34.1237L38.825 66.6775C39.005 67.1712 39.475 67.5 40 67.5C40.525 67.5 40.995 67.1712 41.175 66.6775L45.8763 53.75H51.25C53.3175 53.75 55 55.4325 55 57.5V77.5ZM66.25 70.8625C65.6937 70.025 64.975 69.3063 64.1375 68.75C64.975 68.1937 65.6937 67.475 66.25 66.6375C66.8063 67.475 67.525 68.1937 68.3625 68.75C67.525 69.3063 66.8063 70.025 66.25 70.8625Z" fill="white"/>
<path d="M33.75 10H36.25V6.25H40V3.75H36.25V0H33.75V3.75H30V6.25H33.75V10Z" fill="white"/>
</svg>

<svg width="80" height="80" fill="none" xmlns="http://www.w3.org/2000/svg"><path d="M26.25 25v2.5c0 3.017 2.151 5.542 5 6.124V40c0 2.377.956 4.534 2.5 6.111v.139c.042 0 .083-.011.124-.013A8.722 8.722 0 0040 48.75c4.825 0 8.75-3.926 8.75-8.75V30a6.257 6.257 0 00-6.25-6.25h-15c-.69 0-1.25.559-1.25 1.25zM40 46.25a6.167 6.167 0 01-3.125-.87C38.734 44.296 40 42.302 40 40h-2.5c0 1.674-1.109 3.078-2.626 3.559A6.209 6.209 0 0133.75 40v-6.25h7.5c0 3.017 2.151 5.542 5 6.124V40A6.257 6.257 0 0140 46.25zm-11.25-20H42.5A3.755 3.755 0 0146.25 30v7.286a3.757 3.757 0 01-2.5-3.536V32.5c0-.691-.56-1.25-1.25-1.25h-10a3.755 3.755 0 01-3.75-3.75v-1.25z" fill="#fff"/><path d="M76.638 68.75A7.495 7.495 0 0080 62.5c0-4.136-3.364-7.5-7.5-7.5a7.498 7.498 0 00-6.25 3.362A7.495 7.495 0 0060 55a7.44 7.44 0 00-2.834.578c-.816-2.503-3.145-4.328-5.916-4.328H30.379l-6.909-4.606-5.197-10.394H20v-2.5h-5v-10.1a8.717 8.717 0 004.861-2.4h1.389A6.257 6.257 0 0027.5 15v-2.5c0-.691-.56-1.25-1.25-1.25H22.5V10c0-.691-.56-1.25-1.25-1.25h-15C5.56 8.75 5 9.309 5 10v1.25H1.25c-.69 0-1.25.559-1.25 1.25V15a6.257 6.257 0 006.25 6.25h1.389a8.721 8.721 0 004.861 2.4v10.1h-5v2.5h1.676l7.175 16.742c.089.208.232.388.414.52l2.165 1.574a7.502 7.502 0 00-5.18 3.278A7.496 7.496 0 007.5 55C3.364 55 0 58.364 0 62.5a7.498 7.498 0 003.362 6.25A7.498 7.498 0 000 75v5h2.5v-5c0-2.757 2.242-5 5-5s5 2.243 5 5v5H15v-5c0-2.757 2.242-5 5-5s5 2.243 5 5v5h2.5v-5a7.498 7.498 0 00-3.363-6.25A7.495 7.495 0 0027.5 62.5c0-.432-.045-.854-.115-1.266L30 63.136V78.75c0 .691.56 1.25 1.25 1.25h25c.69 0 1.25-.559 1.25-1.25v-8.066A4.94 4.94 0 0160 70c2.758 0 5 2.243 5 5v5h2.5v-5c0-2.757 2.243-5 5-5s5 2.243 5 5v5H80v-5a7.498 7.498 0 00-3.362-6.25zM25 13.75V15c0 1.926-1.465 3.499-3.336 3.709A8.68 8.68 0 0022.5 15v-1.25H25zM2.5 15v-1.25H5V15c0 1.326.305 2.58.836 3.709C3.965 18.499 2.5 16.926 2.5 15zm5 0v-3.75H20V15a6.257 6.257 0 01-6.25 6.25A6.257 6.257 0 017.5 15zm-5 47.5c0-2.758 2.242-5 5-5s5 2.242 5 5c0 2.757-2.242 5-5 5s-5-2.243-5-5zm11.25 8.362a7.554 7.554 0 00-2.113-2.112 7.554 7.554 0 002.113-2.112 7.554 7.554 0 002.113 2.112 7.554 7.554 0 00-2.113 2.112zM20 67.5c-2.758 0-5-2.243-5-5 0-2.758 2.242-5 5-5s5 2.242 5 5c0 2.757-2.242 5-5 5zm52.5-10c2.757 0 5 2.242 5 5 0 2.757-2.243 5-5 5s-5-2.243-5-5c0-2.758 2.243-5 5-5zm-7.5 5c0 2.757-2.242 5-5 5a4.952 4.952 0 01-2.5-.683v-8.634A4.952 4.952 0 0160 57.5c2.758 0 5 2.242 5 5zm-26.25-3.345l-1.965-5.405h1.965v5.405zm2.5-5.405h1.965l-1.965 5.405V53.75zM55 77.5h-5V60h-2.5v17.5h-15v-15c0-.4-.191-.775-.515-1.011L18.512 51.69l-6.616-15.44h3.581l5.905 11.809c.098.194.244.36.425.481l7.5 5c.204.136.447.21.693.21h4.124l4.701 12.927a1.251 1.251 0 002.35 0l4.701-12.927h5.374A3.755 3.755 0 0155 57.5v20zm11.25-6.638a7.556 7.556 0 00-2.112-2.112 7.556 7.556 0 002.112-2.112 7.556 7.556 0 002.112 2.112 7.556 7.556 0 00-2.112 2.112zM33.75 10h2.5V6.25H40v-2.5h-3.75V0h-2.5v3.75H30v2.5h3.75V10z" fill="#fff"/></svg>
